bundles/org.openhab.ui.habpanel/web/assets/icons/freepik-housethings/window-building-detail.svg

<svg xmlns="http://www.w3.org/2000/svg" width="382.5" height="382.5" style="enable-background:new 0 0 382.5 382.5" xml:space="preserve"><path d="M346.708 0H33.421c-9.888 0-14.296 9.792-14.296 17.452v6.933c0 7.66 4.408 13.866 14.296 13.866h14.392V382.499h286.875V38.25h12.021c9.887 0 16.667-6.206 16.667-13.866v-6.933C363.375 9.792 356.595 0 346.708 0zm-24.72 38.25-2.84 2.84-2.85-2.84h5.69zm-27.051 0h7.841l9.601 9.601-13.521 13.521-13.521-13.521 9.6-9.601zM143.342 189.854l13.521-13.521 13.521 13.521-13.521 13.521-13.521-13.521zm6.761 20.282-13.521 13.521-13.521-13.521 13.521-13.521 13.521 13.521zm27.043-13.522 13.521 13.521-13.521 13.521-13.521-13.521 13.521-13.521zm6.76-6.76 13.521-13.521 13.521 13.521-13.521 13.521-13.521-13.521zm33.813 6.76 13.521 13.521-13.521 13.521-13.521-13.521 13.521-13.521zm6.76-6.76L238 176.333l13.521 13.521L238 203.375l-13.521-13.521zm0-40.574L238 135.759l13.521 13.521L238 162.801l-13.521-13.521zm6.761 20.282-13.521 13.521-13.521-13.521 13.521-13.521 13.521 13.521zm-33.812-6.76-13.521-13.521 13.521-13.521 13.521 13.521-13.521 13.521zm-6.761 6.76-13.521 13.521-13.521-13.521 13.521-13.521 13.521 13.521zm-33.804-6.76-13.521-13.521 13.521-13.521 13.521 13.521-13.521 13.521zm-6.76 6.76-13.521 13.521-13.521-13.521 13.521-13.521 13.521 13.521zm-33.813-6.76-13.521-13.521 13.521-13.521 13.521 13.521-13.521 13.521zm13.53 27.052-13.521 13.521-13.521-13.521 13.521-13.521 13.521 13.521zm-.009 40.564-13.521 13.521-13.521-13.521 13.521-13.521 13.521 13.521zm6.761 6.761 13.521 13.521-13.521 13.521L123.05 250.7l13.522-13.521zm6.77-6.761 13.521-13.521 13.521 13.521-13.521 13.521-13.521-13.521zm33.804 6.761 13.521 13.521-13.521 13.521-13.522-13.521 13.522-13.521zm6.76-6.761 13.521-13.521 13.521 13.521-13.521 13.521-13.521-13.521zm33.813 6.761L231.24 250.7l-13.521 13.521-13.522-13.521 13.522-13.521zm6.76-6.761L238 216.897l13.521 13.521L238 243.939l-13.521-13.521zm33.804 6.761 13.521 13.521-13.521 13.521-13.521-13.521 13.521-13.521zm-13.521-27.043 13.521-13.521 13.521 13.521-13.521 13.521-13.521-13.521zm0-40.574 13.521-13.521 13.521 13.521-13.521 13.521-13.521-13.521zm0-40.564 13.521-13.521 13.521 13.521-13.521 13.521-13.521-13.521zm-6.761-6.761-13.521-13.521 13.521-13.521 13.521 13.521-13.521 13.521zm-6.761 6.761-13.521 13.521-13.521-13.521 13.521-13.521 13.521 13.521zm-33.812-6.77-13.521-13.521 13.521-13.521 13.521 13.521-13.521 13.521zm-6.761 6.77-13.521 13.521-13.521-13.521 13.521-13.521 13.521 13.521zm-33.804-6.77-13.521-13.521 13.521-13.521 13.521 13.521-13.521 13.521zm-6.76 6.77-13.521 13.521-13.521-13.521 13.521-13.521 13.521 13.521zm-33.813-6.761-13.521-13.521 13.521-13.521 13.521 13.521-13.521 13.521zm-6.761 6.761L96.007 142.52l-13.521-13.521 13.521-13.521 13.522 13.52zm0 40.564-13.521 13.521-13.521-13.521 13.521-13.521 13.521 13.521zm0 40.574-13.521 13.521-13.521-13.521 13.521-13.521 13.521 13.521zm0 40.564-13.521 13.521L82.486 250.7l13.521-13.521 13.522 13.521zm0 40.573-13.521 13.521-13.521-13.521 13.521-13.521 13.521 13.521zm-6.761-20.281 13.521-13.521 13.521 13.521-13.521 13.521-13.521-13.521zm33.804 6.76 13.521 13.521-13.521 13.521-13.521-13.521 13.521-13.521zm6.77-6.76 13.521-13.521 13.521 13.521-13.521 13.521-13.521-13.521zm33.804 6.76 13.521 13.521-13.521 13.521-13.521-13.521 13.521-13.521zm6.76-6.76 13.521-13.521 13.521 13.521-13.521 13.521-13.521-13.521zm33.813 6.76 13.521 13.521-13.521 13.521-13.521-13.521 13.521-13.521zm6.76-6.76L238 257.471l13.521 13.521L238 284.513l-13.521-13.521zm33.814 6.76 13.521 13.521-13.521 13.521-13.521-13.521 13.521-13.521zm6.761-6.76 13.521-13.521 13.521 13.521-13.521 13.521-13.521-13.521zm0-40.574 13.521-13.521 13.521 13.521-13.521 13.521-13.521-13.521zm-.01-40.564 13.521-13.521 13.521 13.521-13.521 13.521-13.521-13.521zm0-40.574 13.521-13.521 13.521 13.521-13.521 13.521-13.521-13.521zm.01-40.573 13.521-13.521 13.521 13.521-13.521 13.521-13.521-13.521zm-.01-40.564 13.531-13.531 13.521 13.521-13.53 13.531-13.522-13.521zm6.77 20.281-13.521 13.521-13.521-13.521 13.521-13.521 13.521 13.521zm-33.813-6.76L224.48 68.143l13.521-13.521 13.521 13.521-13.521 13.521zm-6.761 6.76-13.521 13.521-13.521-13.521 13.521-13.521 13.521 13.521zm-33.812-6.76-13.521-13.521 13.521-13.521 13.521 13.521-13.521 13.521zm-6.761 6.76-13.521 13.521-13.521-13.521 13.521-13.521 13.521 13.521zm-33.804-6.76-13.521-13.521 13.521-13.521 13.521 13.521-13.521 13.521zm-6.76 6.76-13.521 13.521-13.522-13.521 13.521-13.521 13.522 13.521zm-33.813-6.76-13.521-13.521 13.521-13.521 13.521 13.521-13.521 13.521zm-6.761 6.76-13.521 13.521-13.522-13.521 13.521-13.521 13.522 13.521zm-33.813-6.76L62.194 68.143l13.521-13.521 13.521 13.521-13.52 13.521zm13.531 27.043-13.521 13.521-13.521-13.521 13.521-13.521 13.521 13.521zm0 40.573-13.521 13.521-13.522-13.521 13.521-13.521 13.522 13.521zm0 40.574-13.521 13.521-13.521-13.521 13.521-13.521 13.521 13.521zm0 40.564-13.521 13.521-13.521-13.521 13.521-13.521 13.521 13.521zm0 40.574-13.521 13.521-13.521-13.521 13.521-13.521 13.521 13.521zm0 40.564-13.521 13.521-13.521-13.521 13.521-13.521 13.521 13.521zm6.76 6.77 13.521 13.521-13.521 13.521-13.521-13.521 13.521-13.521zm6.761-6.77 13.521-13.521 13.521 13.521-13.521 13.521-13.521-13.521zm33.813 6.77 13.521 13.521-13.521 13.521-13.521-13.521 13.521-13.521zm6.761-6.761 13.521-13.521 13.521 13.521-13.521 13.521-13.521-13.521zm33.804 6.761 13.521 13.521-13.521 13.521-13.521-13.521 13.521-13.521zm6.76-6.761 13.521-13.521 13.521 13.521-13.521 13.521-13.521-13.521zm33.813 6.761 13.521 13.521-13.521 13.521-13.521-13.521 13.521-13.521zm6.76-6.761L238 298.044l13.521 13.521L238 325.086l-13.521-13.521zm33.804 6.761 13.521 13.521-13.521 13.521-13.521-13.521 13.521-13.521zm6.761-6.761 13.521-13.521 13.521 13.521-13.521 13.521-13.521-13.521zm33.812 6.761 13.521 13.521-13.521 13.521-13.521-13.521 13.521-13.521zm-13.52-27.053 13.521-13.521 13.521 13.521-13.521 13.521-13.521-13.521zm0-40.573 13.521-13.521 13.521 13.521-13.521 13.521-13.521-13.521zm0-40.564 13.521-13.521 13.521 13.521-13.521 13.521-13.521-13.521zm0-40.574 13.521-13.521 13.521 13.521-13.521 13.521-13.521-13.521zm0-40.564 13.521-13.521 13.521 13.521-13.521 13.521-13.521-13.521zm0-40.574 13.53-13.531 13.521 13.521-13.531 13.531-13.52-13.521zm-3.921-50.174-2.84 2.84-2.841-2.84h5.681zm-27.053 0h7.842l9.601 9.601-13.531 13.531-13.522-13.522 9.61-9.61zm-13.521 0-2.84 2.84-2.85-2.84h5.69zm-27.042 0h7.841l9.601 9.601-13.521 13.521-13.521-13.521 9.6-9.601zm-13.522 0-2.841 2.84-2.85-2.84h5.691zm-27.052 0h7.841l9.601 9.601-13.521 13.521-13.521-13.521 9.6-9.601zm-13.522 0-2.84 2.84-2.85-2.84h5.69zm-27.052 0h7.841l9.601 9.601-13.521 13.521-13.522-13.521 9.601-9.601zm-13.522 0-2.84 2.84-2.84-2.84h5.68zm-27.042 0h7.841l9.601 9.601-13.522 13.521-13.521-13.521 9.601-9.601zm-13.522 0-2.84 2.84-2.85-2.84h5.69zm-21.19 0h1.979l9.601 9.601-11.58 11.59V38.25zm0 38.594 11.58 11.58-11.58 11.581V76.844zm0 40.564 11.58 11.581-11.58 11.589v-23.17zm0 40.574 11.58 11.581-11.58 11.59v-23.171zm0 40.564 11.58 11.58-11.58 11.59v-23.17zm0 40.574 11.58 11.58-11.58 11.59v-23.17zm0 40.573 11.58 11.58-11.58 11.59v-23.17zm0 40.565 11.58 11.58-11.58 11.59v-23.17zm11.064 52.68H57.375v-12.106l11.59 11.58-.526.526zm-6.245-20.808 13.521-13.521 13.521 13.521-13.521 13.521-13.521-13.521zm46.819 20.808h-26.01l-.516-.517L96.008 358.9l13.521 13.521-.516.517zm-6.245-20.808 13.521-13.521 13.521 13.521-13.521 13.521-13.521-13.521zm46.809 20.808h-26.01l-.516-.517 13.521-13.521 13.521 13.521-.516.517zm-6.235-20.808 13.521-13.521 13.521 13.521-13.521 13.521-13.521-13.521zm46.808 20.808h-26.01l-.526-.517 13.521-13.521 13.521 13.521-.506.517zm-6.244-20.808 13.521-13.521 13.521 13.521-13.521 13.521-13.521-13.521zm46.818 20.808h-26.01l-.525-.526 13.521-13.521 13.521 13.521-.507.526zm-6.245-20.808L238 338.609l13.521 13.521L238 365.651l-13.521-13.521zm46.809 20.808h-26.01l-.517-.517 13.521-13.521 13.521 13.521-.515.517zm-6.244-20.808 13.521-13.521 13.521 13.521-13.521 13.521-13.521-13.521zm46.817 20.808h-26l-.517-.517 13.521-13.521 13.521 13.521-.525.517zm13.264-13.264-5.986 5.986-13.521-13.521 13.521-13.521 5.986 5.968v15.088zm0-40.573-5.977 5.977-13.521-13.521 13.521-13.521 5.977 5.986v15.079zm0-40.565-5.977 5.977-13.521-13.521 13.521-13.521 5.977 5.977v15.088zm0-40.573-5.986 5.977-13.521-13.521 13.521-13.521 5.986 5.986v15.079zm0-40.574-5.986 5.986-13.521-13.521 13.521-13.521 5.986 5.977v15.079zm0-40.564-5.977 5.977-13.521-13.521 13.521-13.521 5.977 5.977v15.088zm0-40.574-5.986 5.986-13.521-13.521 13.531-13.531 5.977 5.977v15.089zm0-40.573-5.977 5.977-13.521-13.521 13.521-13.521 5.977 5.986v15.079z"/></svg>

<?xml version="1.0" encoding="iso-8859-1"?>
<!-- Generator: Adobe Illustrator 16.0.0, SVG Export Plug-In . SVG Version: 6.00 Build 0)  -->
<!DOCTYPE svg PUBLIC "-//W3C//DTD SVG 1.1//EN" "http://www.w3.org/Graphics/SVG/1.1/DTD/svg11.dtd">
<svg version="1.1" id="Capa_1" xmlns="http://www.w3.org/2000/svg" xmlns:xlink="http://www.w3.org/1999/xlink" x="0px" y="0px"
	 width="382.5px" height="382.5px" viewBox="0 0 382.5 382.5" style="enable-background:new 0 0 382.5 382.5;" xml:space="preserve"
	>
<g>
	<path d="M346.708,0H33.421c-9.888,0-14.296,9.792-14.296,17.452v6.933c0,7.66,4.408,13.866,14.296,13.866h14.392v3.701v11.8v13.521
		v1.722v13.521v11.8v13.521v1.721v13.521v11.8V148.4v1.721v13.521v11.801v13.521v1.721v13.521v11.801v13.521v1.722v13.55v11.801
		v13.521v1.722v13.521v11.8v13.521v1.722v13.521v11.8v13.521v1.721v13.521v6.445v9.562h286.875V38.25h12.021
		c9.887,0,16.667-6.206,16.667-13.866v-6.933C363.375,9.792,356.595,0,346.708,0z M321.988,38.25l-2.84,2.84l-2.85-2.84H321.988z
		 M294.937,38.25h7.841l9.601,9.601l-13.521,13.521l-13.521-13.521L294.937,38.25z M143.342,189.854l13.521-13.521l13.521,13.521
		l-13.521,13.521L143.342,189.854z M150.103,210.136l-13.521,13.521l-13.521-13.521l13.521-13.521L150.103,210.136z
		 M177.146,196.614l13.521,13.521l-13.521,13.521l-13.521-13.521L177.146,196.614z M183.906,189.854l13.521-13.521l13.521,13.521
		l-13.521,13.521L183.906,189.854z M217.719,196.614l13.521,13.521l-13.521,13.521l-13.521-13.521L217.719,196.614z
		 M224.479,189.854l13.521-13.521l13.521,13.521l-13.521,13.521L224.479,189.854z M224.479,149.28l13.521-13.521l13.521,13.521
		l-13.521,13.521L224.479,149.28z M231.24,169.562l-13.521,13.521l-13.521-13.521l13.521-13.521L231.24,169.562z M197.428,162.802
		l-13.521-13.521l13.521-13.521l13.521,13.521L197.428,162.802z M190.667,169.562l-13.521,13.521l-13.521-13.521l13.521-13.521
		L190.667,169.562z M156.863,162.802l-13.521-13.521l13.521-13.521l13.521,13.521L156.863,162.802z M150.103,169.562l-13.521,13.521
		l-13.521-13.521l13.521-13.521L150.103,169.562z M116.29,162.802l-13.521-13.521l13.521-13.521l13.521,13.521L116.29,162.802z
		 M129.82,189.854l-13.521,13.521l-13.521-13.521l13.521-13.521L129.82,189.854z M129.811,230.418l-13.521,13.521l-13.521-13.521
		l13.521-13.521L129.811,230.418z M136.572,237.179l13.521,13.521l-13.521,13.521L123.05,250.7L136.572,237.179z M143.342,230.418
		l13.521-13.521l13.521,13.521l-13.521,13.521L143.342,230.418z M177.146,237.179l13.521,13.521l-13.521,13.521L163.624,250.7
		L177.146,237.179z M183.906,230.418l13.521-13.521l13.521,13.521l-13.521,13.521L183.906,230.418z M217.719,237.179L231.24,250.7
		l-13.521,13.521L204.197,250.7L217.719,237.179z M224.479,230.418l13.521-13.521l13.521,13.521l-13.521,13.521L224.479,230.418z
		 M258.283,237.179l13.521,13.521l-13.521,13.521L244.762,250.7L258.283,237.179z M244.762,210.136l13.521-13.521l13.521,13.521
		l-13.521,13.521L244.762,210.136z M244.762,169.562l13.521-13.521l13.521,13.521l-13.521,13.521L244.762,169.562z M244.762,128.998
		l13.521-13.521l13.521,13.521l-13.521,13.521L244.762,128.998z M238.001,122.237l-13.521-13.521l13.521-13.521l13.521,13.521
		L238.001,122.237z M231.24,128.998l-13.521,13.521l-13.521-13.521l13.521-13.521L231.24,128.998z M197.428,122.228l-13.521-13.521
		l13.521-13.521l13.521,13.521L197.428,122.228z M190.667,128.998l-13.521,13.521l-13.521-13.521l13.521-13.521L190.667,128.998z
		 M156.863,122.228l-13.521-13.521l13.521-13.521l13.521,13.521L156.863,122.228z M150.103,128.998l-13.521,13.521l-13.521-13.521
		l13.521-13.521L150.103,128.998z M116.29,122.237l-13.521-13.521l13.521-13.521l13.521,13.521L116.29,122.237z M109.529,128.998
		L96.007,142.52l-13.521-13.521l13.521-13.521L109.529,128.998z M109.529,169.562l-13.521,13.521l-13.521-13.521l13.521-13.521
		L109.529,169.562z M109.529,210.136l-13.521,13.521l-13.521-13.521l13.521-13.521L109.529,210.136z M109.529,250.7l-13.521,13.521
		L82.486,250.7l13.521-13.521L109.529,250.7z M109.529,291.273l-13.521,13.521l-13.521-13.521l13.521-13.521L109.529,291.273z
		 M102.768,270.992l13.521-13.521l13.521,13.521l-13.521,13.521L102.768,270.992z M136.572,277.752l13.521,13.521l-13.521,13.521
		l-13.521-13.521L136.572,277.752z M143.342,270.992l13.521-13.521l13.521,13.521l-13.521,13.521L143.342,270.992z M177.146,277.752
		l13.521,13.521l-13.521,13.521l-13.521-13.521L177.146,277.752z M183.906,270.992l13.521-13.521l13.521,13.521l-13.521,13.521
		L183.906,270.992z M217.719,277.752l13.521,13.521l-13.521,13.521l-13.521-13.521L217.719,277.752z M224.479,270.992l13.521-13.521
		l13.521,13.521l-13.521,13.521L224.479,270.992z M258.293,277.752l13.521,13.521l-13.521,13.521l-13.521-13.521L258.293,277.752z
		 M265.054,270.992l13.521-13.521l13.521,13.521l-13.521,13.521L265.054,270.992z M265.054,230.418l13.521-13.521l13.521,13.521
		l-13.521,13.521L265.054,230.418z M265.044,189.854l13.521-13.521l13.521,13.521l-13.521,13.521L265.044,189.854z M265.044,149.28
		l13.521-13.521l13.521,13.521l-13.521,13.521L265.044,149.28z M265.054,108.707l13.521-13.521l13.521,13.521l-13.521,13.521
		L265.054,108.707z M265.044,68.143l13.531-13.531l13.521,13.521l-13.53,13.531L265.044,68.143z M271.814,88.424l-13.521,13.521
		l-13.521-13.521l13.521-13.521L271.814,88.424z M238.001,81.664l-13.521-13.521l13.521-13.521l13.521,13.521L238.001,81.664z
		 M231.24,88.424l-13.521,13.521l-13.521-13.521l13.521-13.521L231.24,88.424z M197.428,81.664l-13.521-13.521l13.521-13.521
		l13.521,13.521L197.428,81.664z M190.667,88.424l-13.521,13.521l-13.521-13.521l13.521-13.521L190.667,88.424z M156.863,81.664
		l-13.521-13.521l13.521-13.521l13.521,13.521L156.863,81.664z M150.103,88.424l-13.521,13.521L123.06,88.424l13.521-13.521
		L150.103,88.424z M116.29,81.664l-13.521-13.521l13.521-13.521l13.521,13.521L116.29,81.664z M109.529,88.424l-13.521,13.521
		L82.486,88.424l13.521-13.521L109.529,88.424z M75.716,81.664L62.194,68.143l13.521-13.521l13.521,13.521L75.716,81.664z
		 M89.247,108.707l-13.521,13.521l-13.521-13.521l13.521-13.521L89.247,108.707z M89.247,149.28l-13.521,13.521L62.204,149.28
		l13.521-13.521L89.247,149.28z M89.247,189.854l-13.521,13.521l-13.521-13.521l13.521-13.521L89.247,189.854z M89.247,230.418
		l-13.521,13.521l-13.521-13.521l13.521-13.521L89.247,230.418z M89.247,270.992l-13.521,13.521l-13.521-13.521l13.521-13.521
		L89.247,270.992z M89.247,311.556l-13.521,13.521l-13.521-13.521l13.521-13.521L89.247,311.556z M96.007,318.326l13.521,13.521
		l-13.521,13.521l-13.521-13.521L96.007,318.326z M102.768,311.556l13.521-13.521l13.521,13.521l-13.521,13.521L102.768,311.556z
		 M136.581,318.326l13.521,13.521l-13.521,13.521l-13.521-13.521L136.581,318.326z M143.342,311.565l13.521-13.521l13.521,13.521
		l-13.521,13.521L143.342,311.565z M177.146,318.326l13.521,13.521l-13.521,13.521l-13.521-13.521L177.146,318.326z
		 M183.906,311.565l13.521-13.521l13.521,13.521l-13.521,13.521L183.906,311.565z M217.719,318.326l13.521,13.521l-13.521,13.521
		l-13.521-13.521L217.719,318.326z M224.479,311.565l13.521-13.521l13.521,13.521l-13.521,13.521L224.479,311.565z M258.283,318.326
		l13.521,13.521l-13.521,13.521l-13.521-13.521L258.283,318.326z M265.044,311.565l13.521-13.521l13.521,13.521l-13.521,13.521
		L265.044,311.565z M298.856,318.326l13.521,13.521l-13.521,13.521l-13.521-13.521L298.856,318.326z M285.336,291.273l13.521-13.521
		l13.521,13.521l-13.521,13.521L285.336,291.273z M285.336,250.7l13.521-13.521l13.521,13.521l-13.521,13.521L285.336,250.7z
		 M285.336,210.136l13.521-13.521l13.521,13.521l-13.521,13.521L285.336,210.136z M285.336,169.562l13.521-13.521l13.521,13.521
		l-13.521,13.521L285.336,169.562z M285.336,128.998l13.521-13.521l13.521,13.521l-13.521,13.521L285.336,128.998z M285.336,88.424
		l13.53-13.531l13.521,13.521l-13.531,13.531L285.336,88.424z M281.415,38.25l-2.84,2.84l-2.841-2.84H281.415z M254.362,38.25h7.842
		l9.601,9.601l-13.531,13.531L244.752,47.86L254.362,38.25z M240.841,38.25l-2.84,2.84l-2.85-2.84H240.841z M213.799,38.25h7.841
		l9.601,9.601l-13.521,13.521l-13.521-13.521L213.799,38.25z M200.277,38.25l-2.841,2.84l-2.85-2.84H200.277z M173.225,38.25h7.841
		l9.601,9.601l-13.521,13.521l-13.521-13.521L173.225,38.25z M159.703,38.25l-2.84,2.84l-2.85-2.84H159.703z M132.651,38.25h7.841
		l9.601,9.601l-13.521,13.521L123.05,47.851L132.651,38.25z M119.129,38.25l-2.84,2.84l-2.84-2.84H119.129z M92.087,38.25h7.841
		l9.601,9.601L96.007,61.372L82.486,47.851L92.087,38.25z M78.565,38.25l-2.84,2.84l-2.85-2.84H78.565z M57.375,38.25h1.979
		l9.601,9.601l-11.58,11.59V38.25z M57.375,76.844l11.58,11.58l-11.58,11.581V76.844z M57.375,117.408l11.58,11.581l-11.58,11.589
		V117.408z M57.375,157.982l11.58,11.581l-11.58,11.59V157.982z M57.375,198.546l11.58,11.58l-11.58,11.59V198.546z M57.375,239.12
		l11.58,11.58l-11.58,11.59V239.12z M57.375,279.693l11.58,11.58l-11.58,11.59V279.693z M57.375,320.258l11.58,11.58l-11.58,11.59
		V320.258z M68.439,372.938H57.375v-12.106l11.59,11.58L68.439,372.938z M62.194,352.13l13.521-13.521l13.521,13.521l-13.521,13.521
		L62.194,352.13z M109.013,372.938h-26.01l-0.516-0.517l13.521-13.521l13.521,13.521L109.013,372.938z M102.768,352.13
		l13.521-13.521l13.521,13.521l-13.521,13.521L102.768,352.13z M149.577,372.938h-26.01l-0.516-0.517l13.521-13.521l13.521,13.521
		L149.577,372.938z M143.342,352.13l13.521-13.521l13.521,13.521l-13.521,13.521L143.342,352.13z M190.15,372.938h-26.01
		l-0.526-0.517l13.521-13.521l13.521,13.521L190.15,372.938z M183.906,352.13l13.521-13.521l13.521,13.521l-13.521,13.521
		L183.906,352.13z M230.724,372.938h-26.01l-0.525-0.526l13.521-13.521l13.521,13.521L230.724,372.938z M224.479,352.13
		l13.521-13.521l13.521,13.521l-13.521,13.521L224.479,352.13z M271.288,372.938h-26.01l-0.517-0.517l13.521-13.521l13.521,13.521
		L271.288,372.938z M265.044,352.13l13.521-13.521l13.521,13.521l-13.521,13.521L265.044,352.13z M311.861,372.938h-26l-0.517-0.517
		l13.521-13.521l13.521,13.521L311.861,372.938z M325.125,359.674l-5.986,5.986l-13.521-13.521l13.521-13.521l5.986,5.968V359.674z
		 M325.125,319.101l-5.977,5.977l-13.521-13.521l13.521-13.521l5.977,5.986V319.101z M325.125,278.536l-5.977,5.977l-13.521-13.521
		l13.521-13.521l5.977,5.977V278.536z M325.125,237.963l-5.986,5.977l-13.521-13.521l13.521-13.521l5.986,5.986V237.963z
		 M325.125,197.389l-5.986,5.986l-13.521-13.521l13.521-13.521l5.986,5.977V197.389z M325.125,156.825l-5.977,5.977l-13.521-13.521
		l13.521-13.521l5.977,5.977V156.825z M325.125,116.251l-5.986,5.986l-13.521-13.521l13.531-13.531l5.977,5.977V116.251z
		 M325.125,75.678l-5.977,5.977l-13.521-13.521l13.521-13.521l5.977,5.986V75.678z"/>
</g>
<g>
</g>
<g>
</g>
<g>
</g>
<g>
</g>
<g>
</g>
<g>
</g>
<g>
</g>
<g>
</g>
<g>
</g>
<g>
</g>
<g>
</g>
<g>
</g>
<g>
</g>
<g>
</g>
<g>
</g>
</svg>
